svg/fluentui-system-icons/ic_fluent_person_heart_20_filled.svg

<svg width="20" height="20" viewBox="0 0 20 20" fill="none" xmlns="http://www.w3.org/2000/svg">
<path d="M9 2C6.79086 2 5 3.79086 5 6C5 8.20914 6.79086 10 9 10C11.2091 10 13 8.20914 13 6C13 3.79086 11.2091 2 9 2ZM4.00873 11C2.90315 11 2 11.8869 2 13C2 14.6912 2.83281 15.9663 4.13499 16.7966C5.41697 17.614 7.14526 18 9 18C9.95484 18 10.8762 17.8977 11.7203 17.6869L9.88937 15.6847C8.76382 14.4539 8.69937 12.5876 9.73731 11.2821C9.81657 11.1824 9.90031 11.0884 9.98802 11L4.00873 11ZM14.4994 12.0028L13.8712 11.5103C12.8356 10.6983 11.339 10.8744 10.5201 11.9044C9.78794 12.8253 9.83341 14.1416 10.6273 15.0098L14.1304 18.8405C14.3286 19.0573 14.6701 19.0573 14.8684 18.8405L18.3717 15.0093C19.1654 14.1414 19.2109 12.8254 18.4792 11.9046C17.6606 10.8745 16.164 10.6982 15.1284 11.5098L14.4994 12.0028Z" fill="#212121"/>
</svg>

<svg xmlns="http://www.w3.org/2000/svg" width="20" height="20"><path d="M9 2a4 4 0 1 0 0 8 4 4 0 0 0 0-8Zm-4.991 9A2.001 2.001 0 0 0 2 13c0 1.691.833 2.966 2.135 3.797C5.417 17.614 7.145 18 9 18c.955 0 1.876-.102 2.72-.313l-1.83-2.002A3.394 3.394 0 0 1 9.987 11h-5.98Zm10.49 1.003-.628-.493a2.394 2.394 0 0 0-3.244 3.5l3.503 3.83a.5.5 0 0 0 .738 0l3.504-3.83a2.394 2.394 0 0 0-3.244-3.5l-.629.493Z"/></svg>
